ui/src/assets/icons/items/metal-boot.svg

<svg xmlns="http://www.w3.org/2000/svg" viewBox="0 0 512 512"><path d="M0 0h512v512H0z"/><path fill="#fff" d="m269 23.95-87.7.1c1.1 61.4-2.4 116.05-14 159.45-9 34-23.6 61.6-45.2 79-.1 9.5-.8 19-2.1 28.6-3.1 22.9-13.5 43.2-22.75 65 23.55-1.3 43.55-11.6 65.35-24.8 20.6-12.5 42.4-27.5 68.9-37.8-.2-1.4-.4-2.9-.4-4.2-1.9-23.7.1-52.2 4.1-83.2C243 147.6 257.9 81.05 269 23.95zm-105.7.1H80.65c-1.6 36.5 10.1 76.15 21.65 119.15 8.3 30.4 16.5 62.3 19 95.7 12.6-14.3 21.8-34.4 28.6-60 10.8-40.6 14.4-94.15 13.4-154.85zm41.8 14.9a9 9 0 0 1 .1 0 9 9 0 0 1 9 9 9 9 0 0 1-9 9 9 9 0 0 1-9-9 9 9 0 0 1 8.9-9zm-2.4 52.5a9 9 0 0 1 .1 0 9 9 0 0 1 9 8.95 9 9 0 0 1-9 9 9 9 0 0 1-9-9 9 9 0 0 1 8.9-8.95zm-5.9 56.25a9 9 0 0 1 .1 0 9 9 0 0 1 9 9 9 9 0 0 1-9 9 9 9 0 0 1-9-9 9 9 0 0 1 8.9-9zm-16 60.6a9 9 0 0 1 .1 0 9 9 0 0 1 9 9 9 9 0 0 1-9 9 9 9 0 0 1-9-9 9 9 0 0 1 8.9-9zm-32 48.1a9 9 0 0 1 .1 0 9 9 0 0 1 9 9 9 9 0 0 1-9 9 9 9 0 0 1-9-9 9 9 0 0 1 8.9-9zm85.7 55.3c-22.6 9.6-42.3 22.9-62.6 35-24.6 14.9-50.5 27.9-81.85 27.5-8.2 22.7-13.8 48-10 79.9h82.35c13.2-41.4 42.9-78 95.1-106.8-1.4-1-2.9-2.1-4.3-3.2-9.6-7.6-15.3-18.8-18.7-32.4zm40.2 46.7c-52.1 26.2-80.4 58.5-93.6 95.7h127.4c0-14.3.6-29 3.9-43.6 2.6-11.5 7-22.9 14-33.9-16.1-3.3-33.5-8.1-51.7-18.2zm70.8 21.8c-8.2 10.9-12.8 22.3-15.5 34.3-2.8 12.5-3.5 25.8-3.5 39.6h104c-2-17.8-12.5-39.8-28.1-52.1-17.8-13.9-36-17.9-56.9-21.8zm8.3 10.5a9 9 0 0 1 9 9 9 9 0 0 1-9 9 9 9 0 0 1-9-9 9 9 0 0 1 9-9zm-254.05 35a9 9 0 0 1 .1 0 9 9 0 0 1 8.95 9 9 9 0 0 1-8.95 9 9 9 0 0 1-9-9 9 9 0 0 1 8.9-9zm44.85.6a9 9 0 0 1 .1 0 9 9 0 0 1 9 9 9 9 0 0 1-9 9 9 9 0 0 1-9-9 9 9 0 0 1 8.9-9zm201.5.1a9 9 0 0 1 9 9 9 9 0 0 1-9 9 9 9 0 0 1-9-9 9 9 0 0 1 9-9zM72.05 470v18.1H440V470z"/></svg>

<svg xmlns="http://www.w3.org/2000/svg" viewBox="0 0 512 512"><path d="M0 0h512v512H0z"/>
    <!-- Upper boot shaft (right side) - Primary metal plates -->
    <path fill="#fff" data-channel="primary" d="M269 23.95L181.3 24.05C182.4 85.45 178.9 140.1 167.3 183.5 158.3 217.5 143.7 245.1 122.1 262.5 122 272 121.3 281.5 120 291.1 116.9 314 106.5 334.3 97.25 356.1 120.8 354.8 140.8 344.5 162.6 331.3 183.2 318.8 205 303.8 231.5 293.5 231.3 292.1 231.1 290.6 231.1 289.3 229.2 265.6 231.2 237.1 235.2 206.1 243 147.6 257.9 81.05 269 23.95Z"/>
    <!-- Upper boot shaft (left side) - Secondary metal reinforcement -->
    <path fill="#fff" data-channel="secondary" d="M163.3 24.05H80.65C79.05 60.55 90.75 100.2 102.3 143.2 110.6 173.6 118.8 205.5 121.3 238.9 133.9 224.6 143.1 204.5 149.9 178.9 160.7 138.3 164.3 84.75 163.3 24.05Z"/>
    <!-- Decorative rivet 1 (top right) - Detail accent -->
    <path fill="#fff" data-channel="detail" d="M205.1 38.95A9 9 0 0 1 205.2 38.95 9 9 0 0 1 214.2 47.95 9 9 0 0 1 205.2 56.95 9 9 0 0 1 196.2 47.95 9 9 0 0 1 205.1 38.95Z"/>
    <!-- Decorative rivet 2 - Detail accent -->
    <path fill="#fff" data-channel="detail" d="M202.7 91.45A9 9 0 0 1 202.8 91.45 9 9 0 0 1 211.8 100.4 9 9 0 0 1 202.8 109.4 9 9 0 0 1 193.8 100.4 9 9 0 0 1 202.7 91.45Z"/>
    <!-- Decorative rivet 3 - Detail accent -->
    <path fill="#fff" data-channel="detail" d="M196.8 147.7A9 9 0 0 1 196.9 147.7 9 9 0 0 1 205.9 156.7 9 9 0 0 1 196.9 165.7 9 9 0 0 1 187.9 156.7 9 9 0 0 1 196.8 147.7Z"/>
    <!-- Decorative rivet 4 - Detail accent -->
    <path fill="#fff" data-channel="detail" d="M180.8 208.3A9 9 0 0 1 180.9 208.3 9 9 0 0 1 189.9 217.3 9 9 0 0 1 180.9 226.3 9 9 0 0 1 171.9 217.3 9 9 0 0 1 180.8 208.3Z"/>
    <!-- Decorative rivet 5 - Detail accent -->
    <path fill="#fff" data-channel="detail" d="M148.8 256.4A9 9 0 0 1 148.9 256.4 9 9 0 0 1 157.9 265.4 9 9 0 0 1 148.9 274.4 9 9 0 0 1 139.9 265.4 9 9 0 0 1 148.8 256.4Z"/>
    <!-- Lower boot section (left foot) - Primary metal plates -->
    <path fill="#fff" data-channel="primary" d="M234.5 311.7C211.9 321.3 192.2 334.6 171.9 346.7 147.3 361.6 121.4 374.6 90.05 374.2 81.85 396.9 76.25 422.2 80.05 454.1H162.4C175.6 412.7 205.3 376.1 257.5 347.3 256.1 346.3 254.6 345.2 253.2 344.1 243.6 336.5 237.9 325.3 234.5 311.7Z"/>
    <!-- Mid boot section (center foot) - Primary metal plates -->
    <path fill="#fff" data-channel="primary" d="M274.7 358.4C222.6 384.6 194.3 416.9 181.1 454.1H308.5C308.5 439.8 309.1 425.1 312.4 410.5 315 399 319.4 387.6 326.4 376.6 310.3 373.3 292.9 368.5 274.7 358.4Z"/>
    <!-- Lower boot section (right foot) - Primary metal plates -->
    <path fill="#fff" data-channel="primary" d="M345.5 380.2C337.3 391.1 332.7 402.5 330 414.5 327.2 427 326.5 440.3 326.5 454.1H430.5C428.5 436.3 418 414.3 402.4 402 384.6 388.1 366.4 384.1 345.5 380.2Z"/>
    <!-- Decorative rivet 6 (right foot) - Detail accent -->
    <path fill="#fff" data-channel="detail" d="M353.8 390.7A9 9 0 0 1 362.8 399.7 9 9 0 0 1 353.8 408.7 9 9 0 0 1 344.8 399.7 9 9 0 0 1 353.8 390.7Z"/>
    <!-- Decorative rivet 7 (left toe) - Detail accent -->
    <path fill="#fff" data-channel="detail" d="M99.75 425.7A9 9 0 0 1 99.85 425.7 9 9 0 0 1 108.8 434.7 9 9 0 0 1 99.85 443.7 9 9 0 0 1 90.85 434.7 9 9 0 0 1 99.75 425.7Z"/>
    <!-- Decorative rivet 8 (center toe) - Detail accent -->
    <path fill="#fff" data-channel="detail" d="M144.6 426.3A9 9 0 0 1 144.7 426.3 9 9 0 0 1 153.7 435.3 9 9 0 0 1 144.7 444.3 9 9 0 0 1 135.7 435.3 9 9 0 0 1 144.6 426.3Z"/>
    <!-- Decorative rivet 9 (right toe) - Detail accent -->
    <path fill="#fff" data-channel="detail" d="M346.1 426.4A9 9 0 0 1 355.1 435.4 9 9 0 0 1 346.1 444.4 9 9 0 0 1 337.1 435.4 9 9 0 0 1 346.1 426.4Z"/>
    <!-- Boot sole/base - Edge highlights -->
    <path fill="#fff" data-channel="edge" d="M72.05 470V488.1H440V470Z"/></svg>
